; G-Code generated by Simplify3D(R) Version 4.0.1
; Edited to remove prime strip.
G90
M82
M106 S0
M140 S60
M190 S60
M104 S210 T0
M109 S210 T0
G28 ; home all axes
G92 E0
G1 Z0.100 F1000
; process Process1
; layer 1, Z = 0.100
T0
; tool H0.100 W0.200
; outer perimeter
G1 X109.800 Y110.600 F4800
G1 E0.0000 F720
G92 E0
G1 X110.200 Y110.600 E0.0033 F540
G1 X110.200 Y117.800 E0.0632
G1 X112.400 Y117.800 E0.0815
G1 X112.400 Y110.600 E0.1414
G1 X117.200 Y110.600 E0.1813
G1 X117.200 Y117.800 E0.2411
G1 X119.400 Y117.800 E0.2594
G1 X119.400 Y110.600 E0.3193
G1 X120.200 Y110.600 E0.3259
G1 X120.200 Y119.400 E0.3991
G1 X109.800 Y119.400 E0.4856
G1 X109.800 Y110.600 E0.5588
; solid layer
G1 X109.920 Y110.769 F4800
G92 E0
G1 X110.080 Y110.929 E0.0019 F540
G1 X110.080 Y111.211 E0.0042
G1 X109.920 Y111.051 E0.0061
G1 X109.920 Y111.334 E0.0085
G1 X110.080 Y111.494 E0.0103
G1 X110.080 Y111.777 E0.0127
G1 X109.920 Y111.617 E0.0146
G1 X109.920 Y111.900 E0.0169
G1 X110.080 Y112.060 E0.0188
G1 X110.080 Y112.343 E0.0212
G1 X109.920 Y112.183 E0.0230
G1 X109.920 Y112.466 E0.0254
G1 X110.080 Y112.626 E0.0273
G1 X110.080 Y112.908 E0.0296
G1 X109.920 Y112.748 E0.0315
G1 X109.920 Y113.031 E0.0339
G1 X110.080 Y113.191 E0.0357
G1 X110.080 Y113.474 E0.0381
G1 X109.920 Y113.314 E0.0400
G1 X109.920 Y113.597 E0.0423
G1 X110.080 Y113.757 E0.0442
G1 X110.080 Y114.040 E0.0466
G1 X109.920 Y113.880 E0.0484
G1 X109.920 Y114.163 E0.0508
G1 X110.080 Y114.323 E0.0527
G1 X110.080 Y114.605 E0.0550
G1 X109.920 Y114.445 E0.0569
G1 X109.920 Y114.728 E0.0593
G1 X110.080 Y114.888 E0.0611
G1 X110.080 Y115.171 E0.0635
G1 X109.920 Y115.011 E0.0654
G1 X109.920 Y115.294 E0.0677
G1 X110.080 Y115.454 E0.0696
G1 X110.080 Y115.737 E0.0720
G1 X109.920 Y115.577 E0.0738
G1 X109.920 Y115.860 E0.0762
G1 X110.080 Y116.020 E0.0781
G1 X110.080 Y116.303 E0.0804
G1 X109.920 Y116.143 E0.0823
G1 X109.920 Y116.425 E0.0847
G1 X110.080 Y116.585 E0.0865
G1 X110.080 Y116.868 E0.0889
G1 X109.920 Y116.708 E0.0908
G1 X109.920 Y116.991 E0.0931
G1 X110.080 Y117.151 E0.0950
G1 X110.080 Y117.434 E0.0974
G1 X109.920 Y117.274 E0.0992
G1 X109.920 Y117.557 E0.1016
G1 X110.080 Y117.717 E0.1035
G1 X110.080 Y117.920 E0.1052
G1 X110.283 Y117.920 E0.1069
G1 X111.643 Y119.280 E0.1229
G1 X111.360 Y119.280 E0.1252
G1 X109.920 Y117.840 E0.1421
G1 X109.920 Y118.122 E0.1445
G1 X111.078 Y119.280 E0.1581
G1 X110.795 Y119.280 E0.1605
G1 X109.920 Y118.405 E0.1707
G1 X109.920 Y118.688 E0.1731
G1 X110.512 Y119.280 E0.1801
G1 X110.229 Y119.280 E0.1824
G1 X109.920 Y118.971 E0.1860
G1 X109.920 Y119.254 E0.1884
G1 X109.946 Y119.280 E0.1887
G1 X110.566 Y117.920 F4800
G92 E0
G1 X111.926 Y119.280 E0.0160 F540
G1 X112.209 Y119.280 E0.0183
G1 X110.849 Y117.920 E0.0343
G1 X111.132 Y117.920 E0.0367
G1 X112.492 Y119.280 E0.0527
G1 X112.775 Y119.280 E0.0550
G1 X111.415 Y117.920 E0.0710
G1 X111.697 Y117.920 E0.0734
G1 X113.057 Y119.280 E0.0894
G1 X113.340 Y119.280 E0.0917
G1 X111.980 Y117.920 E0.1077
G1 X112.263 Y117.920 E0.1101
G1 X113.623 Y119.280 E0.1261
G1 X113.906 Y119.280 E0.1284
G1 X112.520 Y117.894 E0.1447
G1 X112.520 Y117.611 E0.1471
G1 X114.189 Y119.280 E0.1667
G1 X114.472 Y119.280 E0.1690
G1 X112.520 Y117.328 E0.1920
G1 X112.520 Y117.045 E0.1943
G1 X114.755 Y119.280 E0.2206
G1 X115.037 Y119.280 E0.2230
G1 X112.520 Y116.763 E0.2526
G1 X112.520 Y116.480 E0.2549
G1 X115.320 Y119.280 E0.2879
G1 X115.603 Y119.280 E0.2902
G1 X112.520 Y116.197 E0.3265
G1 X112.520 Y115.914 E0.3288
G1 X115.886 Y119.280 E0.3684
G1 X116.169 Y119.280 E0.3707
G1 X112.520 Y115.631 E0.4136
G1 X112.520 Y115.348 E0.4160
G1 X116.452 Y119.280 E0.4622
G1 X116.734 Y119.280 E0.4646
G1 X112.520 Y115.066 E0.5141
G1 X112.520 Y114.783 E0.5165
G1 X117.017 Y119.280 E0.5694
G1 X117.300 Y119.280 E0.5717
G1 X112.520 Y114.500 E0.6279
G1 X112.520 Y114.217 E0.6303
G1 X117.583 Y119.280 E0.6898
G1 X117.866 Y119.280 E0.6922
G1 X112.520 Y113.934 E0.7550
G1 X112.520 Y113.651 E0.7574
G1 X118.149 Y119.280 E0.8236
G1 X118.431 Y119.280 E0.8259
G1 X112.520 Y113.369 E0.8955
G1 X116.943 Y110.720 F4800
G92 E0
G1 X117.080 Y110.857 E0.0016 F540
G1 X117.080 Y111.140 E0.0040
G1 X116.660 Y110.720 E0.0089
G1 X116.377 Y110.720 E0.0113
G1 X117.080 Y111.423 E0.0195
G1 X117.080 Y111.706 E0.0219
G1 X116.094 Y110.720 E0.0335
G1 X115.811 Y110.720 E0.0358
G1 X117.080 Y111.989 E0.0507
G1 X117.080 Y112.272 E0.0531
G1 X115.528 Y110.720 E0.0713
G1 X115.245 Y110.720 E0.0737
G1 X117.080 Y112.554 E0.0953
G1 X117.080 Y112.837 E0.0976
G1 X114.963 Y110.720 E0.1225
G1 X114.680 Y110.720 E0.1249
G1 X117.080 Y113.120 E0.1531
G1 X117.080 Y113.403 E0.1554
G1 X114.397 Y110.720 E0.1870
G1 X114.114 Y110.720 E0.1894
G1 X117.080 Y113.686 E0.2242
G1 X117.080 Y113.969 E0.2266
G1 X113.831 Y110.720 E0.2648
G1 X113.548 Y110.720 E0.2671
G1 X117.080 Y114.252 E0.3087
G1 X117.080 Y114.534 E0.3110
G1 X113.266 Y110.720 E0.3559
G1 X112.983 Y110.720 E0.3582
G1 X117.080 Y114.817 E0.4064
G1 X117.080 Y115.100 E0.4088
G1 X112.700 Y110.720 E0.4603
G1 X112.520 Y110.720 E0.4618
G1 X112.520 Y110.823 E0.4626
G1 X117.080 Y115.383 E0.5162
G1 X117.080 Y115.666 E0.5186
G1 X112.520 Y111.106 E0.5722
G1 X112.520 Y111.389 E0.5746
G1 X117.080 Y115.949 E0.6282
G1 X117.080 Y116.231 E0.6305
G1 X112.520 Y111.671 E0.6842
G1 X112.520 Y111.954 E0.6865
G1 X117.080 Y116.514 E0.7401
G1 X117.080 Y116.797 E0.7425
G1 X112.520 Y112.237 E0.7961
G1 X112.520 Y112.520 E0.7985
G1 X117.080 Y117.080 E0.8521
G1 X117.080 Y117.363 E0.8544
G1 X112.520 Y112.803 E0.9080
G1 X112.520 Y113.086 E0.9104
G1 X117.080 Y117.646 E0.9640
G1 X117.080 Y117.920 E0.9663
G1 X117.354 Y117.920 E0.9686
G1 X118.714 Y119.280 E0.9846
G1 X118.997 Y119.280 E0.9869
G1 X117.637 Y117.920 E1.0029
G1 X117.920 Y117.920 E1.0053
G1 X119.280 Y119.280 E1.0213
G1 X119.563 Y119.280 E1.0236
G1 X118.203 Y117.920 E1.0396
G1 X118.486 Y117.920 E1.0420
G1 X119.846 Y119.280 E1.0580
G1 X120.080 Y119.280 E1.0599
G1 X120.080 Y119.231 E1.0603
G1 X118.769 Y117.920 E1.0757
G1 X119.051 Y117.920 E1.0781
G1 X120.080 Y118.949 E1.0902
G1 X120.080 Y118.666 E1.0925
G1 X119.334 Y117.920 E1.1013
G1 X119.520 Y117.920 E1.1028
G1 X119.520 Y117.823 E1.1037
G1 X120.080 Y118.383 E1.1102
G1 X120.080 Y118.100 E1.1126
G1 X119.520 Y117.540 E1.1192
G1 X119.520 Y117.257 E1.1215
G1 X120.080 Y117.817 E1.1281
G1 X120.080 Y117.534 E1.1305
G1 X119.520 Y116.974 E1.1370
G1 X119.520 Y116.692 E1.1394
G1 X120.080 Y117.252 E1.1460
G1 X120.080 Y116.969 E1.1483
G1 X119.520 Y116.409 E1.1549
G1 X119.520 Y116.126 E1.1573
G1 X120.080 Y116.686 E1.1639
G1 X120.080 Y116.403 E1.1662
G1 X119.520 Y115.843 E1.1728
G1 X119.520 Y115.560 E1.1751
G1 X120.080 Y116.120 E1.1817
G1 X120.080 Y115.837 E1.1841
G1 X119.520 Y115.277 E1.1907
G1 X119.520 Y114.994 E1.1930
G1 X120.080 Y115.554 E1.1996
G1 X120.080 Y115.272 E1.2020
G1 X119.520 Y114.712 E1.2085
G1 X119.520 Y114.429 E1.2109
G1 X120.080 Y114.989 E1.2175
G1 X120.080 Y114.706 E1.2198
G1 X119.520 Y114.146 E1.2264
G1 X119.520 Y113.863 E1.2288
G1 X120.080 Y114.423 E1.2354
G1 X120.080 Y114.140 E1.2377
G1 X119.520 Y113.580 E1.2443
G1 X119.520 Y113.297 E1.2466
G1 X120.080 Y113.857 E1.2532
G1 X120.080 Y113.575 E1.2556
G1 X119.520 Y113.015 E1.2622
G1 X119.520 Y112.732 E1.2645
G1 X120.080 Y113.292 E1.2711
G1 X120.080 Y113.009 E1.2735
G1 X119.520 Y112.449 E1.2800
G1 X119.520 Y112.166 E1.2824
G1 X120.080 Y112.726 E1.2890
G1 X120.080 Y112.443 E1.2913
G1 X119.520 Y111.883 E1.2979
G1 X119.520 Y111.600 E1.3003
G1 X120.080 Y112.160 E1.3069
G1 X120.080 Y111.878 E1.3092
G1 X119.520 Y111.318 E1.3158
G1 X119.520 Y111.035 E1.3181
G1 X120.080 Y111.595 E1.3247
G1 X120.080 Y111.312 E1.3271
G1 X119.520 Y110.752 E1.3337
G1 X119.520 Y110.720 E1.3339
G1 X119.771 Y110.720 E1.3360
G1 X120.080 Y111.029 E1.3396
G1 X120.080 Y110.746 E1.3420
G1 X120.054 Y110.720 E1.3423
G92 E0
G1 E-4.0000 F2400
; layer end
G28 X0 ; home X axis
M106 S0 ; turn off cooling fan
M104 S0 ; turn off extruder
M140 S0 ; turn off bed
M84 ; disable motors
; Build Summary
;   Build time: 0 hours 0 minutes
;   Filament length: 3.0 mm (0.00 m)
;   Plastic volume: 7.18 mm^3 (0.01 cc)
;   Plastic weight: 0.01 g (0.00 lb)
;   Material cost: 0.00
